static/img/pages/getQuestdb/windows.svg

<svg
  fill="none"
  height="49"
  viewBox="0 0 44 44"
  xmlns="http://www.w3.org/2000/svg"
>
  <path
    d="M43.7702 0.293945L20.6744 3.68385V20.8612L43.7702 20.6772V0.293945ZM0.904112 22.7251L0.905146 37.3423L18.4134 39.7494L18.3997 22.8388L0.904112 22.7251ZM20.4907 22.9595L20.5231 40.0107L43.7484 43.2886L43.754 22.9978L20.4907 22.9595ZM0.891357 6.38157L0.907559 20.9915L18.4159 20.8919L18.4079 3.99547L0.891357 6.38157Z"
    fill="#F35183"
  />
</svg>

<svg fill="none" height="49" viewBox="0 0 44 44" xmlns="http://www.w3.org/2000/svg"><path d="M43.77.294l-23.096 3.39V20.86l23.096-.184V.294zM.904 22.725l.001 14.617 17.508 2.407-.013-16.91-17.496-.114zm19.587.234l.032 17.052 23.225 3.278.006-20.291-23.263-.039zM.89 6.382l.017 14.61 17.508-.1-.008-16.897L.89 6.382z" fill="#F35183"/></svg>
